!!!!SEGMENT: pl-cz--i-81_kietlinski-albert--w-twym-swietym-kosciele.krn
!!!cenid: 18xx:876
!!!COM: Kietliński, Albert
!!!COM-rismID: pe30098443
!!!CDT: ~1800-~1899
!!!CNT: Polish
!!!OTL: W twym świętym Kościele
!!!PDT:
!!!AGN: Sacred
!!!YEC: Copyright 2022 Narodowy Instytut Fryderyka Chopina (https://polishscores.org)
!!!YEM: License CC-BY-4.0 (https://creativecommons.org/licenses/by/4.0)
!!!SMS-siglum: PL-CZ
!!!SMS-shelfmark: I-81
!!!SMS-shelfwork: W
!!!SMS-variant:
!!!SMS-altvar:
!!!NIFC-rismSourceID: 300000586
!!!NIFC-rismChildID: 300000586
!!!NIFC-islandoraID: pl-cz:32082
!!!URL-pdf-islandora: https://repozytorium.nifc.pl/islandora/object/pl-cz%3A32082/datastream/PDF/view
!!!URL-scan: https://polish.musicsources.pl/pl/lokalizacje/galeria/rekopisy/6751/1 @EN{Scan on Polish Music Sources Website} @PL{Skany w portalu Dziedzictwo Muzyki Polskiej w otwartym dostępie}
!!!IIIF:
!!!ONB-nifc:
!!!AIN: 1 organ
!!!key: G
**kern	**kern	**dynam	**kern	**text	**kern	**text	**kern	**text	**text	**text
*part4	*part4	*	*part3	*	*part2	*	*part1	*	*	*
*staff5	*staff4	*	*staff3	*	*staff2	*	*staff1	*	*	*
*I"Organo	*I"Organo	*	*I"Baſso	*	*I"Tenore 2do	*	*I"Tenore 1mo	*	*	*
*I'org	*I'org	*	*I'B	*	*I'T 2	*	*I'T 1	*	*	*
*Iorgan	*Iorgan	*	*	*	*	*	*	*	*	*
*ICklav	*ICklav	*	*	*	*	*	*	*	*	*
*IGcont	*IGcont	*	*	*	*	*	*	*	*	*
*>[A,B,B,B,C]	*>[A,B,B,B,C]	*>[A,B,B,B,C]	*>[A,B,B,B,C]	*>[A,B,B,B,C]	*>[A,B,B,B,C]	*>[A,B,B,B,C]	*>[A,B,B,B,C]	*>[A,B,B,B,C]	*>[A,B,B,B,C]	*>[A,B,B,B,C]
*>A	*>A	*>A	*>A	*>A	*>A	*>A	*>A	*>A	*>A	*>A
*clefF4	*clefG2	*	*clefF4	*	*clefG2	*	*clefG2	*	*	*
*k[f#]	*k[f#]	*	*k[f#]	*	*k[f#]	*	*k[f#]	*	*	*
*G:	*G:	*	*G:	*	*G:	*	*G:	*	*	*
*M6/8	*M6/8	*	*M6/8	*	*M6/8	*	*M6/8	*	*	*
=1	=1	=1	=1	=1	=1	=1	=1	=1	=1	=1
*2\right	*	*	*	*	*	*	*	*	*	*
!	!LO:TX:a:i:t=Andantino	!	!LO:TX:a:t=1	!	!	!	!	!	!	!
!	!	!	!LO:TX:a:i:t=Andantino	!	!LO:TX:a:i:t=Andantino	!	!LO:TX:a:i:t=Andantino	!	!	!
2.G 2.GG;\	2.g 2.d 2.B;/	.	2.r	.	2.r;	.	2.r;	.	.	.
=2	=2	=2	=2	=2	=2	=2	=2	=2	=2	=2
!	!	!	!LO:TX:a:i:t=Chór	!	!LO:TX:a:i:t=Chór	!	!LO:TX:a:i:t=Chór	!	!	!
2.G 2.GG\	(8B/L	.	4GG/	Wtym	4.B/	Wtym	4.d/	Wtym	.	.
.	8d/	.	.	.	.	.	.	.	.	.
.	8g/J)	.	8GG/	swię-	.	.	.	.	.	.
.	(8B/L	.	4GG/	-tym	8B/	swię-	8d/	swię-	.	.
.	8d/	.	.	.	8d/	-tym	8g/	-tym	.	.
.	8g/J)	.	8GG/	Ko-	8g/	Ko-	8b/	Ko-	.	.
=3	=3	=3	=3	=3	=3	=3	=3	=3	=3	=3
4.G 4.GG\	(8B/L	.	4.GG/	-śćie-	4.b/	-śćie-	4.dd\	-śćie-	.	.
.	8d/	.	.	.	.	.	.	.	.	.
.	8g/J)	.	.	.	.	.	.	.	.	.
*	*rep	*	*	*	*	*	*	*	*	*
4.G 4.GG\	(8B/L	.	4GG/	-le	4b/	-le	4dd\	-le	.	.
.	8d/	.	.	.	.	.	.	.	.	.
.	8g/J)	.	8r	.	8r	.	8r	.	.	.
*	*Xrep	*	*	*	*	*	*	*	*	*
=4	=4	=4	=4	=4	=4	=4	=4	=4	=4	=4
4.D 4.DD/	(8c/L	.	4D\	Rzuć	(8a/L	Rzuć	(8cc\L	Rzuć	.	.
.	8d/	.	.	.	8f#/JZ)	.	8a\J)	.	.	.
.	8f#/J)	.	8D\	na	8d/	na	8f#/	na	.	.
*	*rep	*	*	*	*	*	*	*	*	*
4.D 4.DD/	(8c/L	.	4F#\	nas	4d/	nas	4d/	nas	.	.
.	8d/	.	.	.	.	.	.	.	.	.
.	8f#/J)	.	8D\	wej-	8f#/	wej-	8a/	wej-	.	.
*	*Xrep	*	*	*	*	*	*	*	*	*
=5	=5	=5	=5	=5	=5	=5	=5	=5	=5	=5
4.G 4.GG\	(8B/L	.	4.G\	-rze-	4.g/	-rze-	4.b\	-rze-	.	.
.	8d/	.	.	.	.	.	.	.	.	.
.	8g/J)	.	.	.	.	.	.	.	.	.
*	*rep	*	*	*	*	*	*	*	*	*
4.G 4.GG\	(8B/L	.	4GG/	-nie	4g/	-nie	4b\	-nie	.	.
.	8d/	.	.	.	.	.	.	.	.	.
.	8g/J)	.	8r	.	8r	.	8r	.	.	.
*	*Xrep	*	*	*	*	*	*	*	*	*
=6	=6	=6	=6	=6	=6	=6	=6	=6	=6	=6
4G 4GG\	8r	.	4.GG/	Naj-	4.B/	Naj-	4.d/	Naj-	.	.
.	8gL 8d 8B/	.	.	.	.	.	.	.	.	.
8r	8gJ 8d 8B/	.	.	.	.	.	.	.	.	.
4G 4GG\	8r	.	8GG/	-czy-	8d/	-czy-	8g/	-czy-	.	.
.	8gL 8d 8B/	.	8GG/	-stszy	8g/	-stszy	8b\	-stszy	.	.
8r	8gJ 8d 8B/	.	8GG/	A-	8b/	A-	8dd\	A-	.	.
=7	=7	=7	=7	=7	=7	=7	=7	=7	=7	=7
*	*^	*	*	*	*	*	*	*	*	*
4c 4C\	8r	4.ryy	.	8C/	-nie-	8cc\	-nie-	8ee\	-nie-	.	.
.	8ccL 8a 8e/	.	.	8C/	-le	8a\	-le	8cc\	-le	.	.
8r	8ccJ 8a 8e/	.	.	8r	.	8a/	J	8cc\	J	.	.
.	.	.	.	.	.	8qqb/	.	8qqdd/	.	.	.
(8AL 8AA\	(<8cc/L	4.e\	.	4r	.	8a/	wy-	8cc\	wy-	.	.
8G#X 8GG\	8b/	.	.	.	.	8g#X/	-słu-	8b\	-słu-	.	.
8AJ 8AA\)	8cc/J)	.	.	8r	.	8a/	-chaj	8cc\	-chaj	.	.
*	*v	*v	*	*	*	*	*	*	*	*	*
!LO:LB:g=original	!LO:LB:g=original	!	!LO:LB:g=original	!	!LO:LB:g=original	!	!LO:LB:g=original	!	!	!
=8	=8	=8	=8	=8	=8	=8	=8	=8	=8	=8
4D\	(8bL 8g\	.	4r	.	8gn/	pie-	8b\	pie-	.	.
.	8cc 8a\	.	.	.	8a/	-nie	8cc\	-nie	.	.
8r	8ddJ 8b\)	.	8D\	J	8b/	I	8dd\	J	.	.
4DD/	4dd 4f#/	.	8D\	wy-	8f#/	wy-	8dd\	wy-	.	.
.	.	.	8D\	-słu-	8f#/	-słu-	8a\	-słu-	.	.
8D\	8f# 8d 8c/	.	8D\	-chaj	8f#/	-chaj	8dd\	-chaj	.	.
=9	=9	=9	=9	=9	=9	=9	=9	=9	=9	=9
8GG\L	[>4.g [>4.d [<4.B/	.	4.GG/	pie-	4.B/	pie-	4.g/	pie-	.	.
8D\	.	.	.	.	.	.	.	.	.	.
8G\J	.	.	.	.	.	.	.	.	.	.
4GG/	4g] 4d] 4B/]	.	4GG/	-nie	4B/	-nie	4g/	-nie	.	.
!	!LO:TX:t=P:problem=segno na kresce taktowej dopisane ołówkiem	!	!LO:TX:t=P:problem=segno na kresce taktowej dopisane ołówkiem	!	!LO:TX:t=P:problem=segno na kresce taktowej dopisane ołówkiem	!	!LO:TX:t=P:problem=segno na kresce taktowej dopisane ołówkiem	!	!	!
8r	8r	.	8r	.	8r	.	8r	.	.	.
=10||	=10||	=10||	=10||	=10||	=10||	=10||	=10||	=10||	=10||	=10||
*>B	*>B	*>B	*>B	*>B	*>B	*>B	*>B	*>B	*>B	*>B
*^	*	*	*	*	*	*	*	*	*	*
!	!	!LO:TX:a:i:t=Solo	!	!LO:TX:a:t=8	!	!LO:TX:a:t=8	!	!LO:TX:a:i:t=Solo dolce	!	!	!
(<8F#/L	4.D\	4.a 4.f#/	p	0.r	.	0.r	.	4f#/	O!	Cie-	Ma-
8A/	.	.	.	.	.	.	.	.	.	.	.
8d/J)	.	.	.	.	.	.	.	8a/	Kró-	-bie	-ry-
*rep	*rep	*	*	*	*	*	*	*	*	*	*
(<8F#/L	4.D\	(8a\L	.	.	.	.	.	(8a\L	-lo-	spie-	-o
8A/	.	8ff#\	.	.	.	.	.	8ff#\J)	.	.	.
!	!	!LO:TX:a:t=3 razy:color=grey	!	!	!	!	!	!	!	!	!
8d/J)	.	8dd\J)	.	.	.	.	.	8dd\	-wa	-wy	bądz
*Xrep	*Xrep	*	*	*	*	*	*	*	*	*	*
=11	=11	=11	=11	=11	=11	=11	=11	=11	=11	=11	=11
(<8G/L	4.D\	4.b 4.g/	.	.	.	.	.	(4b\	nie-	swe-	zna-
8B/	.	.	.	.	.	.	.	.	.	.	.
8d/J)	.	.	.	.	.	.	.	8dd\)	.	.	.
*rep	*rep	*	*	*	*	*	*	*	*	*	*
(<8G/L	4.D\	4dd 4g/	.	.	.	.	.	4dd\	-ba	-mi	-mi
8B/	.	.	.	.	.	.	.	.	.	.	.
8d/J)	.	8r	.	.	.	.	.	8r	.	.	.
*Xrep	*Xrep	*	*	*	*	*	*	*	*	*	*
*v	*v	*	*	*	*	*	*	*	*	*	*
=12	=12	=12	=12	=12	=12	=12	=12	=12	=12	=12
4.D\	(8aL 8f#/	.	.	.	.	.	(8a/L	Każ-	Wiel-	A
.	8d/	.	.	.	.	.	8f#/J)	.	.	.
.	8bJ 8g/)	.	.	.	.	.	8b/	-dy	-bią	wsmu-
4D\	(8aL 8f#/	.	.	.	.	.	(8a/L	się	swię-	-tnej
.	8d/	.	.	.	.	.	8f#/J)	.	.	.
8GG/	8gJ 8e/)	.	.	.	.	.	8g/	o-	-ći	Ko-
=13	=13	=13	=13	=13	=13	=13	=13	=13	=13	=13
!	!LO:TX:a:t=P:problem=mixed beam	!	!	!	!	!	!	!	!	!
4.AA/	(8eL 8c#X/	.	.	.	.	.	4.e/	-śmie-	w nie-	-le-
.	8gg\	.	.	.	.	.	.	.	.	.
.	8ee\J	.	.	.	.	.	.	.	.	.
!	!LO:SIC:o=8qdd/	!	!	!	!	!	!	!	!	!
.	8cc#	.	.	.	.	.	.	.	.	.
4A 4E 4C#X\	8cc\L	.	.	.	.	.	4e/	-la	-bie	-j
.	8b\	.	.	.	.	.	.	.	.	.
8r	8eeJ 8g\)	.	.	.	.	.	8r	.	.	.
!	!	!	!	!	!	!	!LO:LB:g=original	!	!	!
=14	=14	=14	=14	=14	=14	=14	=14	=14	=14	=14
*^	*	*	*	*	*	*	*	*	*	*
(<8F#/L	4.D\	4.a 4.f#/	.	0.r	.	0.r	.	4a/	Pro-	My	Po-
8A/	.	.	.	.	.	.	.	.	.	.	.
8d/J)	.	.	.	.	.	.	.	8f#/	-śić	dzie-	-da-
*rep	*rep	*	*	*	*	*	*	*	*	*	*
(<8F#/L	4.D\	(8a\L	.	.	.	.	.	(8a\L	o	-ci	-waj
8A/	.	8ff#\	.	.	.	.	.	8ff#\J)	.	.	.
8d/J)	.	8dd\J)	.	.	.	.	.	8dd\	co	na	bal-
*Xrep	*Xrep	*	*	*	*	*	*	*	*	*	*
*v	*v	*	*	*	*	*	*	*	*	*	*
!LO:LB:g=original	!LO:LB:g=original	!	!	!	!	!	!	!	!	!
=15	=15	=15	=15	=15	=15	=15	=15	=15	=15	=15
*	*^	*	*	*	*	*	*	*	*	*
!	!LO:SIC:o=(<8ccn/L	!	!	!	!	!	!	!	!	!	!
4.C#X\	4.Cn	4.f#\	.	.	.	.	.	4.ccn\	trze-	zie-	-sa-
.	8b/	.	.	.	.	.	.	.	.	.	.
.	8a/J	.	.	.	.	.	.	.	.	.	.
8E\L	4.b 4.g/)	4.ryy	.	.	.	.	.	4b\	-ba	-mi	-my
8G\	.	.	.	.	.	.	.	.	.	.	.
8B\J	.	.	.	.	.	.	.	8r	.	.	.
*	*v	*v	*	*	*	*	*	*	*	*	*
=16	=16	=16	=16	=16	=16	=16	=16	=16	=16	=16
4.A 4.AA\	4.cc#X 4.g 4.e/	.	.	.	.	.	4cc#X\	Sło-	Mo-	W wie-
.	.	.	.	.	.	.	8ee\	-wy	-dlim	-rze
4.A 4.AA\	8cc#L 8g 8e/	.	.	.	.	.	(8a\L	Ga-	się	i
.	8b/	.	.	.	.	.	8b\J)	.	.	.
.	8cc#/J	.	.	.	.	.	8cc#\	-bry-	do	na-
=17	=17	=17	=17	=17	=17	=17	=17	=17	=17	=17
4.d 4.D\	(8ddL 8f#/	.	.	.	.	.	4.dd\	-e-	Cie-	-dzie-
.	8cc#X 8a/	.	.	.	.	.	.	.	.	.
.	8bJ 8g/)	.	.	.	.	.	.	.	.	.
8d 8D\	(8a/L	.	.	.	.	.	4dd\	-la	-bie	-i
8r	8e 8c/	.	.	.	.	.	.	.	.	.
!LO:TX:t=P:problem=repetycja dopisana ołówkiem	!LO:TX:t=P:problem=repetycja dopisana ołówkiem	!	!	!	!	!	!	!	!	!
8r	8f#J 8d 8c/)	.	.	.	.	.	8r	.	.	.
=18||	=18||	=18||	=18||	=18||	=18||	=18||	=18||	=18||	=18||	=18||
!	!	!	!LO:TX:a:i:t=Chór	!	!LO:TX:a:i:t=Chór	!	!LO:TX:a:i:t=Chór	!	!	!
4G 4GG\	8r	ff	4.GG/	Wtym	4.B/	Wtym	4.d/	.	.	Wtym
.	8gL 8d 8B/	.	.	.	.	.	.	.	.	.
8r	8gJ 8d 8B/	.	.	.	.	.	.	.	.	.
4G 4GG\	8r	.	8GG/	swię-	8B/	swię-	8d/	.	.	swię-
!	!	!	!	!	!LO:TX:a:t=3 razy:color=grey	!	!	!	!	!
.	8gL 8d 8B/	.	8BB/	-tym	8d/	-tym	8g/	.	.	-tym
!	!	!	!LO:TX:a:t=3 razy:color=grey	!	!	!	!	!	!	!
8r	8gJ 8d 8B/	.	8D\	Ko-	8g/	Ko-	8b/	.	.	Ko-
=19	=19	=19	=19	=19	=19	=19	=19	=19	=19	=19
*	*rep	*	*	*	*	*	*	*	*	*
4G 4GG\	8r	.	4.G\	-śćie-	4.b/	-ście-	4.dd\	.	.	-ście-
.	8gL 8d 8B/	.	.	.	.	.	.	.	.	.
8r	8gJ 8d 8B/	.	.	.	.	.	.	.	.	.
*	*Xrep	*	*	*	*	*	*	*	*	*
*	*rep	*	*	*	*	*	*	*	*	*
4G 4GG\	8r	.	4G\	-le	4b/	-le	4dd\	.	.	-le
.	8gL 8d 8B/	.	.	.	.	.	.	.	.	.
8r	8gJ 8d 8B/	.	8r	.	8r	.	8r	.	.	.
*	*Xrep	*	*	*	*	*	*	*	*	*
!	!	!	!	!	!	!	!LO:LB:g=original	!	!	!
=20	=20	=20	=20	=20	=20	=20	=20	=20	=20	=20
4.D 4.DD/	(8c/L	.	4D\	Rzuć	(8a/L	Rzuć	(8cc/L	.	.	Rzuć
.	8d/	.	.	.	8f#/J)	.	8a/J)	.	.	.
.	8f#/J)	.	8D\	na	8d/	na	8f#/	.	.	na
*	*rep	*	*	*	*	*	*	*	*	*
4.D 4.DD/	(8c/L	.	4F#\	nas	4d/	nas	4d/	.	.	nas
.	8d/	.	.	.	.	.	.	.	.	.
.	8f#/J)	.	8D\	wej-	8f#/	wej-	8a/	.	.	wej-
*	*Xrep	*	*	*	*	*	*	*	*	*
!	!	!	!LO:LB:g=original	!	!LO:LB:g=original	!	!	!	!	!
=21	=21	=21	=21	=21	=21	=21	=21	=21	=21	=21
4.G 4.GG\	(8B/L	.	4.G\	-rze-	4.g/	-rze-	4.b\	.	.	-rze-
.	8d/	.	.	.	.	.	.	.	.	.
.	8g/J)	.	.	.	.	.	.	.	.	.
4.G 4.GG\	(8B/L	.	4GG/	-nie	4g/	-nie	4b\	.	.	-nie
.	8d/	.	.	.	.	.	.	.	.	.
.	8g/J)	.	8r	.	8r	.	8r	.	.	.
!LO:LB:g=original	!LO:LB:g=original	!	!	!	!	!	!	!	!	!
=22	=22	=22	=22	=22	=22	=22	=22	=22	=22	=22
4.G 4.GG\	8r	.	4.GG/	Naj-	4.B/	Naj-	4.d/	.	.	Naj-
.	8gL 8d 8B/	.	.	.	.	.	.	.	.	.
.	8gJ 8d 8B/	.	.	.	.	.	.	.	.	.
4G 4GG\	4g 4d 4B/	.	8GG/	-czys-	8d/	-czy-	8g/	.	.	-czy-
.	.	.	8GG/	-tszy	8g/	-stszy	8b\	.	.	-stszy
8r	8r	.	8GG/	A-	8b\	A-	8dd\	.	.	A-
=23	=23	=23	=23	=23	=23	=23	=23	=23	=23	=23
4.C\	4.cc 4.g 4.e/	.	4.C/	-nie-	([4.cc\	-nie-	[4.ee\	.	.	-nie-
4c 4G 4E 4C\	4cc 4g 4e/	.	8C/	-le	8cc\L]	.	8ee\L]	.	.	.
.	.	.	8r	.	8b\J	.	8dd\J	.	.	.
8r	8r	.	8r	.	8a\)	-le	8cc\	.	.	-le
=24	=24	=24	=24	=24	=24	=24	=24	=24	=24	=24
*	*^	*	*	*	*	*	*	*	*	*
4.D\	4.ryy	8bL 8g\	.	4D\	J	(8g\L	J	(8b\L	.	.	J
.	.	8cc 8a\	.	.	.	8a\J)	.	8cc\J)	.	.	.
!	!	!	!	!	!	!LO:TX:a:i:t=ritard&colon;	!	!LO:TX:a:i:t=ritard.	!	!	!
.	.	8ddJ 8b\	.	8D\	wy-	8b\	wy-	8dd\	.	.	wy-
!	!LO:TX:a:i:t=ritard&colon;	!	!	!LO:TX:a:i:t=ritard	!	!	!	!	!	!	!
4.DD/	4dd/	8f#L 8d\	.	(8D\L	-słu-	8f#/L	-słu-	4dd\	.	.	-słu-
.	.	8g 8e\	.	8E\J)	.	8g/J	.	.	.	.	.
.	8ryy	8aJ 8f#\	.	8F#;\	-chaj	8a;/	-chaj	8dd;\	.	.	-chaj
*	*v	*v	*	*	*	*	*	*	*	*	*
=25	=25	=25	=25	=25	=25	=25	=25	=25	=25	=25
*^	*	*	*	*	*	*	*	*	*	*
8BB/L	4.GG\	(8gL 8d 8B/	.	4.G\	pie-	4.g/	pie-	4.g/	.	.	pie-
8G/	.	8B/	.	.	.	.	.	.	.	.	.
8D/J	.	8d/J)	.	.	.	.	.	.	.	.	.
*rep	*rep	*	*	*	*	*	*	*	*	*	*
8BB/L	4.GG\	(8g\L	.	4G 4GG\	-nie	4g/	-nie	4g/	.	.	-nie
8G/	.	8dd\	.	.	.	.	.	.	.	.	.
!	!	!LO:TX:a:i:t=a tempo	!	!	!	!	!	!	!	!	!
!LO:TX:t=P:problem=segno na kresce taktowej dopisane ołówkiem	!	!LO:TX:t=P:problem=segno na kresce taktowej dopisane ołówkiem	!	!LO:TX:t=P:problem=segno na kresce taktowej dopisane ołówkiem	!	!LO:TX:t=P:problem=segno na kresce taktowej dopisane ołówkiem	!	!LO:TX:t=P:problem=segno na kresce taktowej dopisane ołówkiem	!	!	!
8D/J	.	8gg\J)	.	8r	.	8r	.	8r	.	.	.
*Xrep	*Xrep	*	*	*	*	*	*	*	*	*	*
=26	=26	=26	=26	=26	=26	=26	=26	=26	=26	=26	=26
*>C	*>C	*>C	*>C	*>C	*>C	*>C	*>C	*>C	*>C	*>C	*>C
!LO:TX:a:t=da Capo:color=grey	!	!	!	!LO:TX:a:t=3	!	!LO:TX:a:t=3	!	!LO:TX:a:t=3	!	!	!
(<8C/L	4.GG\	(4ff#\	.	1.r	.	1.r	.	1.r	.	.	.
8F#/	.	.	.	.	.	.	.	.	.	.	.
8D/J)	.	8a\	.	.	.	.	.	.	.	.	.
*rep	*rep	*	*	*	*	*	*	*	*	*	*
(<8C/L	4.GG\	4cc\	.	.	.	.	.	.	.	.	.
8F#/	.	.	.	.	.	.	.	.	.	.	.
8D/J)	.	8ee\)	.	.	.	.	.	.	.	.	.
*Xrep	*Xrep	*	*	*	*	*	*	*	*	*	*
=27	=27	=27	=27	=27	=27	=27	=27	=27	=27	=27	=27
(<8BB/L	4.GG\	(4dd\	.	.	.	.	.	.	.	.	.
8G/	.	.	.	.	.	.	.	.	.	.	.
8D/J)	.	8b\)	.	.	.	.	.	.	.	.	.
*rep	*rep	*	*	*	*	*	*	*	*	*	*
(<8BB/L	4.GG\	(8g\L	.	.	.	.	.	.	.	.	.
8G/	.	8dd\	.	.	.	.	.	.	.	.	.
8D/J)	.	8gg\J)	.	.	.	.	.	.	.	.	.
*Xrep	*Xrep	*	*	*	*	*	*	*	*	*	*
=28	=28	=28	=28	=28	=28	=28	=28	=28	=28	=28	=28
(<8C/L	4.GG\	(8ff#\L	.	2.r	.	2.r	.	2.r	.	.	.
8A/	.	8a\	.	.	.	.	.	.	.	.	.
8D/J)	.	8ee\J)	.	.	.	.	.	.	.	.	.
*rep	*rep	*	*	*	*	*	*	*	*	*	*
(<8C/L	4.GG\	(8dd\L	.	.	.	.	.	.	.	.	.
8A/	.	8f#\	.	.	.	.	.	.	.	.	.
8D/J)	.	8a\J)	.	.	.	.	.	.	.	.	.
*Xrep	*Xrep	*	*	*	*	*	*	*	*	*	*
*v	*v	*	*	*	*	*	*	*	*	*	*
=29	=29	=29	=29	=29	=29	=29	=29	=29	=29	=29
!	!LO:TX:a:t=Fine:color=grey	!	!	!	!	!	!	!	!	!
!	!LO:TX:b:i:t=D. Capo	!	!	!	!LO:TX:a:t=Fin:color=grey	!	!	!	!	!
2.G 2.GG\	2.g 2.d 2.B;/	.	2.r;	.	2.r;	.	2.r;	.	.	.
==	==	==	==	==	==	==	==	==	==	==
*-	*-	*-	*-	*-	*-	*-	*-	*-	*-	*-
!!!system-decoration: [(s1,s2,s3)]{s4,s5}
!!!RDF**kern: > = above
!!!RDF**kern: < = below
!!!ENC: Kamil Watkowski
!!!END: 2020-07-21
!!!ENC: Marta Lawrence
!!!END: 2021-12-29
